!!!!SEGMENT: pl-wn--sd-xvi-o-275_bazylik-cyprian--kancjonal-zamoyskich-psalm-dawidow-c-xxvii-beati-omnes-wszyscy-sa-blogoslawieni.krn
!!!cenid: 15xx:830
!!!COM: Bazylik, Cyprian
!!!COM-rismID: pe40000234
!!!CDT: ~1535-~1600
!!!CNT: Polish
!!!GTL: Kancjonał Zamoyskich
!!!OTL: Psalm Dawidów C.XXVII Beati omnes/Wszyscy są błogosławieni
!!!PDT: 1558
!!!AGN:
!!!SMS-siglum: PL-Wn
!!!SMS-shelfmark: SD XVI.O.275
!!!SMS-shelfwork: G
!!!SMS-variant:
!!!SMS-altvar:
!!!NIFC-rismSourceID: 990004246
!!!NIFC-islandoraID:
!!!URL-pdf-islandora:
!!!URL-scan: https://polona.pl/item/psalm-dawidow-cxxvii-beati-omnes-qui-timent-dominum-etc,MTE3MTYwNg/3 @EN{Scan on Polona} @PL{Skany w portalu Polona}
!!!ONB-nifc: UWAGA: proszę zapisywać tylko teksty występujące bezpośrednio pod nutami
!!!AIN: 1 alto 1 bass 1 soprn 1 tenor
!!!key: C:mix
**kern	**text	**mod-text	**kern	**text	**mod-text	**kern	**text	**mod-text	**kern	**text	**mod-text
*part4	*part4	*part1	*part3	*part3	*part1	*part2	*part2	*part1	*part1	*part1	*part1
*staff4	*staff4	*staff1	*staff3	*staff3	*staff1	*staff2	*staff2	*staff1	*staff1	*staff1	*staff1
*I"BASS.	*	*	*I"TENOR.	*	*	*I"ALT.	*	*	*I"CANTVS.	*	*
*mI"Basso	*	*	*mI"Tenore	*	*	*mI"Alto	*	*	*mI"Soprano	*	*
*I'B	*	*	*I'T	*	*	*I'A	*	*	*I'S	*	*
*Ibass	*	*	*Itenor	*	*	*Ialto	*	*	*Isoprn	*	*
*ICvox	*	*	*ICvox	*	*	*ICvox	*	*	*ICvox	*	*
*clefF3	*	*	*clefC3	*	*	*clefC2	*	*	*clefC1	*	*
*mclefF4	*	*	*mclefGv2	*	*	*mclefG2	*	*	*mclefG2	*	*
*k[b-]	*	*	*k[b-]	*	*	*k[b-]	*	*	*k[b-]	*	*
*C:mix	*	*	*C:mix	*	*	*C:mix	*	*	*C:mix	*	*
*M2/1	*	*	*M2/1	*	*	*M2/1	*	*	*M2/1	*	*
*met(C|)	*	*	*met(C|)	*	*	*met(C|)	*	*	*met(C|)	*	*
*mmet(c|)	*	*	*mmet(c|)	*	*	*mmet(c|)	*	*	*mmet(c|)	*	*
=1-	=1-	=1-	=1-	=1-	=1-	=1-	=1-	=1-	=1-	=1-	=1-
!!LO:TX:a:t=P:problem:w źrodle wszystkie caudy po środku
1F	Wſſyt-	Wszy-	1F	Wſſyt-	Wszy-	1c	Wſſy-	Wszy-	1f	Wſſy-	Wszy-
2F/	-ci	-tcy	2c/	-ci	-tcy	2f\	-tci	-tcy	2a\	-ſci	-tcy
2C/	ſą	są	2c/	ſą	są	2e/	ſą	są	2g/	ſą	są
=2-	=2-	=2-	=2-	=2-	=2-	=2-	=2-	=2-	=2-	=2-	=2-
2.F/	bło-	bło-	2.A/	bło-	bło-	2f\	bło-	bło-	2a\	bło-	bło-
.	.	.	.	.	.	1a	-go-	-go-	1cc	-go-	-go-
4G\	.	.	4B-/	.	.	.	.	.	.	.	.
2A\	-go-	-go-	2c/	-go-	-go-	.	.	.	.	.	.
2B-\	-ſła-	-sła-	1f\	-ſła-	-sła-	2d/	-ſła-	-sła-	4b-\	.	.
.	.	.	.	.	.	.	.	.	4a\	.	.
=3-	=3-	=3-	=3-	=3-	=3-	=3-	=3-	=3-	=3-	=3-	=3-
1G	-wye-	-wie-	.	.	.	1g	-wie-	-wie-	2b-\	-ſła-	-sła-
.	.	.	2e\	-wye-	-wie-	.	.	.	2b-\	-wie-	-wie-
!	!	!	!LO:SIC:v:t=custos f	!	!	!	!	!	!	!	!
1.F	-ni/	-ni	1f	-ni/	-ni	1.c	-ni/	-ni	1.a	-ni/	-ni
!	!	!	!LO:LB:g=original	!	!	!	!	!	!	!	!
=4-	=4-	=4-	=4-	=4-	=4-	=4-	=4-	=4-	=4-	=4-	=4-
.	.	.	2r	.	.	.	.	.	.	.	.
!LO:SIC:v:t=custos G	!	!	!	!	!	!LO:SIC:v:t=custos B-	!	!	!LO:SIC:v:t=custos b-	!	!
2D/	y	wiel-	2f\	Pew-	wiel-	2d/	.	wiel-	2a\	y	wiel-
!LO:LB:g=original	!	!	!	!	!	!LO:LB:g=original	!	!	!LO:LB:g=original	!	!
2G\	pew-	.	2d\	.	.	2B-/	pew-	.	2b-\	pew-	.
2A\	-nie	-kim	2c/	-nie	-kim	2c/	-nie	.	2a\	-nie	-kim
=5-	=5-	=5-	=5-	=5-	=5-	=5-	=5-	=5-	=5-	=5-	=5-
2.D/	bę-	szczę-	1d	bę-	szczę-	2A/	bę-	-kim	2.f/	bę-	szczę-
.	.	.	.	.	.	1f	-dą	szczę-	.	.	.
4E/	.	.	.	.	.	.	.	.	4g/	.	.
2F/	-dą	.	1c	-dą	-ściem	.	.	.	2a\	-dą	.
!	!	!	!	!	!	!LO:MO:mod=[2e-	!	!	!	!	!
2C/	zba-	-ściem	.	.	.	1e-X\	zba-	-ściem	1g\	zba-	-ściem
=6-	=6-	=6-	=6-	=6-	=6-	=6-	=6-	=6-	=6-	=6-	=6-
!	!	!	!	!	!	!LO:MO:null:mod=2e-]	!	!	!	!	!
.	.	.	.	.	.	.	.	.	.	.	.
2E-X/	-wie-	ob-	2B-/	zba-	ob-	.	.	.	.	.	.
2F/	.	.	2A/	.	-da-	2c/	.	ob-	1f	-wie-	ob-
1C	-ni/	.	1G	-wie-	-rze-	1c	-wie-	-da-	.	.	.
.	.	-da-	.	.	.	.	.	.	2e/	.	-da-
=7-	=7-	=7-	=7-	=7-	=7-	=7-	=7-	=7-	=7-	=7-	=7-
!LO:SIC:v:t=custos F	!	!	!LO:SIC:v:t=custos c	!	!	!LO:SIC:v:t=custos f	!	!	!	!	!
1FF	.	-rze-	1F	-ni	-ni	1A	-ni.	-rze-	2.f/	.	-rze-
.	.	.	.	.	.	.	.	.	4g/	.	.
!LO:LB:g=original	!	!	!LO:LB:g=original	!	!	!LO:LB:g=original	!	!	!	!	!
!	!	!	!	!	!	!	!	!	!LO:SIC:v:t=custos g	!	!
1F	kto-	-ni	2r	.	.	1f	kto-	-ni	1a	-ni/	-ni
.	.	.	2c/	kto-	któ-	.	.	.	.	.	.
!	!	!	!	!	!	!	!	!	!LO:LB:g=original	!	!
=8-	=8-	=8-	=8-	=8-	=8-	=8-	=8-	=8-	=8-	=8-	=8-
2C/	-rzi	któ-	2c/	-rzi	-rzy	2eny/	-rzi	któ-	2g/	kto-	któ-
2G\	ma-	-rzy	2B-/	ma-	ma-	2d/	ma-	-rzy	2g/	-rzy	-rzy
2F/	-ią	ma-	2A/	-yą	-ją	2f\	-ią	ma-	2a\	ma-	ma-
4BB-/	bo-	-ją	1d\	bo-	bo-	1f\	bo-	-ją	1b-\	-ią	-ją
4C/	.	.	.	.	.	.	.	.	.	.	.
=9-	=9-	=9-	=9-	=9-	=9-	=9-	=9-	=9-	=9-	=9-	=9-
4D/	-yaźń	bo-	.	.	.	.	.	.	.	.	.
4Eny/	.	.	.	.	.	.	.	.	.	.	.
2F/	Bo-	-jaźń	2c/	-yaźń	-jaźń	2f\	-iaźń	bo-	1a	bo-	bo-
1G	.	Bo-	1B-	bo-	Bo-	1d	Bo-	-jaźń	.	.	.
.	.	.	.	.	.	.	.	.	2g/	-yaźń	-jaźń
=10-	=10-	=10-	=10-	=10-	=10-	=10-	=10-	=10-	=10-	=10-	=10-
!LO:SIC:v:t=custos A	!	!	!LO:SIC:v:t=custos c	!	!	!	!	!	!	!	!
1D	-żą/	-żą	1A	-żą/	-żą	4d/	-żą.	Bo-	2a\	Bo-	Bo-
.	.	.	.	.	.	4e/	.	.	.	.	.
!	!	!	!	!	!	!	!	!	!LO:SIC:v:t=custos cc	!	!
.	.	.	.	.	.	4f\	.	.	1cc	-żą/	-żą
!	!	!	!	!	!	!LO:SIC:v:t=custos a	!	!	!	!	!
.	.	.	.	.	.	4g\	.	.	.	.	.
!LO:LB:g=original	!	!	!LO:LB:g=original	!	!	!LO:LB:g=original	!	!	!	!	!
2r	.	.	2r	.	.	4a\	a	-żą	.	.	.
.	.	.	.	.	.	4b-\	.	.	.	.	.
!	!	!	!	!	!	!	!	!	!LO:LB:g=original	!	!
!	!	!	!	!	!	!LO:TX:a:t=P:problem:w źródle nad nutą dopisany kawałek dodatkowej linii	!	!	!	!	!
2A\	a	a	2c/	a	a	2cc\	dro-	a	2cc\	a	a
=11-	=11-	=11-	=11-	=11-	=11-	=11-	=11-	=11-	=11-	=11-	=11-
2B-\	dro-	dro-	2f\	dro-	dro-	2b-\	-da-	dro-	2dd\	dro-	dro-
2B-\	-ga-	-ga-	2d\	-ga-	-ga-	2f\	-mi	-ga-	2ff\	-ga-	-ga-
2c\	-mi	-mi	1g	-mi	-mi	2cc\	ie-	-mi	2ee\	-mi	-mi
2G\	ie-	Je-	.	.	.	1b-\	.	Je-	1dd\	ie-	Je-
=12-	=12-	=12-	=12-	=12-	=12-	=12-	=12-	=12-	=12-	=12-	=12-
2B-\	-go	.	2f\	ie-	Je-	.	.	.	.	.	.
2c\	cho-	-go	2e\	-go	-go	2g\	-go	-go	1cc	-go	-go
1G	.	cho-	1d	cho-	cho-	1g	cho-	cho-	.	.	.
!	!	!	!	!	!	!	!	!	!LO:SIC:s=2bi	!	!
.	.	.	.	.	.	.	.	.	2b-\	cho-	cho-
=13-	=13-	=13-	=13-	=13-	=13-	=13-	=13-	=13-	=13-	=13-	=13-
!LO:SIC:s=0C;	!	!	!LO:SIC:s=0c;	!	!	!LO:SIC:s=0e;	!	!	!LO:SIC:s=0cc;	!	!
!LO:TX:b:B:t=C.S.:mod=	!	!	!	!	!	!LO:TX:b:B:t=C.S.:mod=	!	!	!LO:TX:b:B:t=C.S.:mod=	!	!
0Cl/	-dzą.	-dzą.	0cl/	-dzą.	-dzą.	0el/	-dzą.	-dzą.	0ccl\	-dzą.	-dzą.
==	==	==	==	==	==	==	==	==	==	==	==
*-	*-	*-	*-	*-	*-	*-	*-	*-	*-	*-	*-
!!!system-decoration: [(*)]
!!LO:MO:ori
!!!RDF**kern: l = terminal long
!!LO:MO:mod
!! !!!RDF**kern: i = editorial accidental
!!LO:MO:end
!!!filter-modern: shed -e "s/TX(.*):t=P:/tx$1:t=P:/LG" | shed -e "s/^custos:/Xcustos:/I" | sic -sq | modori -m | autostem -r | tie -s | humtr -p | shed -e "s/-//B"
!!!ENC: Mateusz Solarz
!!!END: 2022-04-28
!!!ENC: Wojciech Jakubiak-Danek
!!!END: 2022-05-10
!!!ENC-modern: Andrzej Kubiczek
!!!END-modern: 2022-07-25
